X:114
%%topspace -50
T: The Kesh
R: jig
M: 6/8
L: 1/8
K: Gmaj
"G"G3 GAB| "D"A3 ABd|"G"edd gdd|"C"edB "D"dBA|
"G"GAG GAB|"D"ABA ABd|"G"edd gdB|"D"AGF "G"G3:|
|:"G"B2B dBd|"C"ege "D"dBA|"G"B2B dBG|"D"ABA AGA|
"G"BAB dBd|"C"ege "D"dBd|"G"gfg "D"aga| "G"bgf g3:|

